X:14
T: A rossz feleség
O: Kászonújfalu (Csík), Róka Ádámné (60), 1912
Q: "Poco parlando" 1/4=100
L:1/4
K:F
{/d}f/f/e/d/ | (c/A/) G G | Hz |
{/d}f/f/e/d/ | (c/A/) G G | Hz|
Q:"tempo guisto"
M:2/4
F/ | B B/>c/ | d/A/ B | F/B/B/c/ | d/A/B | c/c/B/G/ | d d z/ z// |
F// | B/B/B/c/ | (d/A/) B | c/c/B/A/ | G G/ z/ | 

